release/img/response.svg

<svg width="18" height="18" viewBox="0 0 18 18" fill="none" xmlns="http://www.w3.org/2000/svg">
<path d="M15.5582 0.251953H2.08025C1.15364 0.251953 0.403932 1.01009 0.403932 1.9367L0.395508 17.0994L3.765 13.7299H15.5582C16.4848 13.7299 17.243 12.9718 17.243 12.0452V1.9367C17.243 1.01009 16.4848 0.251953 15.5582 0.251953ZM9.66161 7.83331H7.97686V2.77907H9.66161V7.83331ZM9.66161 11.2028H7.97686V9.51805H9.66161V11.2028Z" fill="white"/>
</svg>

<svg width="18" height="18" fill="none" xmlns="http://www.w3.org/2000/svg"><path d="M15.558.252H2.08C1.154.252.404 1.01.404 1.937L.396 17.099l3.369-3.37h11.793a1.69 1.69 0 001.685-1.684V1.937A1.69 1.69 0 0015.558.252zM9.662 7.833H7.977V2.78h1.685v5.054zm0 3.37H7.977V9.518h1.685v1.685z" fill="#fff"/></svg>
